images/arlo-core-shortcode-assets-svg-down-1.svg

<svg width="285" height="285" viewBox="0 0 285 285" fill="none" xmlns="http://www.w3.org/2000/svg">
<g clip-path="url(#clip0_2_3)">
<path d="M135.899 167.877C137.801 169.779 139.992 170.728 142.466 170.728C144.94 170.728 147.127 169.78 149.028 167.877L282.082 34.8295C283.984 32.9265 284.929 30.7365 284.929 28.2625C284.929 25.7885 283.978 23.5975 282.082 21.6955L267.808 7.41745C265.906 5.51445 263.715 4.56445 261.238 4.56445C258.767 4.56445 256.577 5.51445 254.675 7.41745L142.466 119.622L30.262 7.41745C28.359 5.51445 26.169 4.56445 23.695 4.56445C21.22 4.56445 19.03 5.51445 17.128 7.41745L2.856 21.6955C0.95 23.5975 0 25.7845 0 28.2625C0 30.7405 0.953 32.9275 2.856 34.8295L135.899 167.877Z" fill="white"/>
<path d="M267.808 117.053C265.906 115.15 263.715 114.2 261.238 114.2C258.767 114.2 256.577 115.15 254.675 117.053L142.466 229.257L30.262 117.05C28.359 115.147 26.169 114.197 23.695 114.197C21.22 114.197 19.03 115.147 17.128 117.05L2.856 131.327C0.95 133.23 0 135.42 0 137.893C0 140.367 0.953 142.558 2.856 144.463L135.899 277.509C137.801 279.412 139.992 280.363 142.466 280.363C144.94 280.363 147.127 279.412 149.028 277.509L282.082 144.463C283.984 142.56 284.929 140.37 284.929 137.898C284.929 135.424 283.978 133.237 282.082 131.331L267.808 117.053Z" fill="white"/>
</g>
<defs>
<clipPath id="clip0_2_3">
<rect width="284.929" height="284.929" fill="white"/>
</clipPath>
</defs>
</svg>

<?xml version="1.0" encoding="iso-8859-1"?>
<!-- Generator: Adobe Illustrator 16.0.0, SVG Export Plug-In . SVG Version: 6.00 Build 0)  -->
<!DOCTYPE svg PUBLIC "-//W3C//DTD SVG 1.1//EN" "http://www.w3.org/Graphics/SVG/1.1/DTD/svg11.dtd">
<svg version="1.1" id="Capa_1" xmlns="http://www.w3.org/2000/svg" xmlns:xlink="http://www.w3.org/1999/xlink" x="0px" y="0px"
	 width="284.929px" height="284.929px" viewBox="0 0 284.929 284.929" style="enable-background:new 0 0 284.929 284.929;"
	 xml:space="preserve">
<g>
	<g>
		<path d="M135.899,167.877c1.902,1.902,4.093,2.851,6.567,2.851s4.661-0.948,6.562-2.851L282.082,34.829
			c1.902-1.903,2.847-4.093,2.847-6.567s-0.951-4.665-2.847-6.567L267.808,7.417c-1.902-1.903-4.093-2.853-6.57-2.853
			c-2.471,0-4.661,0.95-6.563,2.853L142.466,119.622L30.262,7.417c-1.903-1.903-4.093-2.853-6.567-2.853
			c-2.475,0-4.665,0.95-6.567,2.853L2.856,21.695C0.95,23.597,0,25.784,0,28.262c0,2.478,0.953,4.665,2.856,6.567L135.899,167.877z"
			/>
		<path d="M267.808,117.053c-1.902-1.903-4.093-2.853-6.57-2.853c-2.471,0-4.661,0.95-6.563,2.853L142.466,229.257L30.262,117.05
			c-1.903-1.903-4.093-2.853-6.567-2.853c-2.475,0-4.665,0.95-6.567,2.853L2.856,131.327C0.95,133.23,0,135.42,0,137.893
			c0,2.474,0.953,4.665,2.856,6.57l133.043,133.046c1.902,1.903,4.093,2.854,6.567,2.854s4.661-0.951,6.562-2.854l133.054-133.046
			c1.902-1.903,2.847-4.093,2.847-6.565c0-2.474-0.951-4.661-2.847-6.567L267.808,117.053z"/>
	</g>
</g>
<g>
</g>
<g>
</g>
<g>
</g>
<g>
</g>
<g>
</g>
<g>
</g>
<g>
</g>
<g>
</g>
<g>
</g>
<g>
</g>
<g>
</g>
<g>
</g>
<g>
</g>
<g>
</g>
<g>
</g>
</svg>
